X: 1
T: Arkle Mountain
M: 4/4
L: 1/8
R: reel
K: Gmaj
Ad^cd AGFG|Adde gcc2|Ad^cd efge|dfaf g2ge|
Ad^cd AGFG|Adde gcc2|dB ((3cBA) BGAF|GBAG FDD2:|
|:a2af ggge|dafd cAFA|abaf ggge|dfaf dfge|
a2fa ggge|dafd cAFG|AddB c2cA|GBAG FDD2:|
